X:1
T:Since Maggie Went Away
M:2/4
L:1/8
K:F
F/2-G/2| A3/2 A/2 G3/2 F/2| G3/2 F/2 D3/2 D/2| C/2- D3/2 FA| G2 z G|\
 A3/2 A/2 G3/2 F/2| G/2 F3/2 D3/2 D/2| C/2 A3/2 G2| F2 z G| G3/2 G/2 A3/2 c/2|\
 d3/2 c/2 c3/2 A/2| cA GF| G2 z F/2G/2| AA GF| D3/2 C/2 C3/2 D/2| F/2 A3/2 G3/2 F/2|\
 F4-| F2 z||
